svg/media/camera_2_fill.svg

<?xml version="1.0" encoding="UTF-8"?>
<svg width="24px" height="24px" viewBox="0 0 24 24" version="1.1" xmlns="http://www.w3.org/2000/svg" xmlns:xlink="http://www.w3.org/1999/xlink">
    <title>camera_2_fill</title>
    <g id="页面-1" stroke="none" stroke-width="1" fill="none" fill-rule="evenodd">
        <g id="Media" transform="translate(-96.000000, -48.000000)" fill-rule="nonzero">
            <g id="camera_2_fill" transform="translate(96.000000, 48.000000)">
                 <path d="M24,0 L24,24 L0,24 L0,0 L24,0 Z M12.5934901,23.257841 L12.5819402,23.2595131 L12.5108777,23.2950439 L12.4918791,23.2987469 L12.4918791,23.2987469 L12.4767152,23.2950439 L12.4056548,23.2595131 C12.3958229,23.2563662 12.3870493,23.2590235 12.3821421,23.2649074 L12.3780323,23.275831 L12.360941,23.7031097 L12.3658947,23.7234994 L12.3769048,23.7357139 L12.4804777,23.8096931 L12.4953491,23.8136134 L12.4953491,23.8136134 L12.5071152,23.8096931 L12.6106902,23.7357139 L12.6232938,23.7196733 L12.6232938,23.7196733 L12.6266527,23.7031097 L12.609561,23.275831 C12.6075724,23.2657013 12.6010112,23.2592993 12.5934901,23.257841 L12.5934901,23.257841 Z M12.8583906,23.1452862 L12.8445485,23.1473072 L12.6598443,23.2396597 L12.6498822,23.2499052 L12.6498822,23.2499052 L12.6471943,23.2611114 L12.6650943,23.6906389 L12.6699349,23.7034178 L12.6699349,23.7034178 L12.678386,23.7104931 L12.8793402,23.8032389 C12.8914285,23.8068999 12.9022333,23.8029875 12.9078286,23.7952264 L12.9118235,23.7811639 L12.8776777,23.1665331 C12.8752882,23.1545897 12.8674102,23.1470016 12.8583906,23.1452862 L12.8583906,23.1452862 Z M12.1430473,23.1473072 C12.1332178,23.1423925 12.1221763,23.1452606 12.1156365,23.1525954 L12.1099173,23.1665331 L12.0757714,23.7811639 C12.0751323,23.7926639 12.0828099,23.8018602 12.0926481,23.8045676 L12.108256,23.8032389 L12.3092106,23.7104931 L12.3186497,23.7024347 L12.3186497,23.7024347 L12.3225043,23.6906389 L12.340401,23.2611114 L12.337245,23.2485176 L12.337245,23.2485176 L12.3277531,23.2396597 L12.1430473,23.1473072 Z" id="MingCute" fill-rule="nonzero"></path>
                <path d="M14.7929,3 C15.140975,3 15.4765703,3.12099938 15.7435465,3.33969824 L15.8536,3.43934 L17.4142,5 L20,5 C21.0543909,5 21.9181678,5.81587733 21.9945144,6.85073759 L22,7 L22,19 C22,20.0543909 21.18415,20.9181678 20.1492661,20.9945144 L20,21 L4,21 C2.94563773,21 2.08183483,20.18415 2.00548573,19.1492661 L2,19 L2,7 C2,5.94563773 2.81587733,5.08183483 3.85073759,5.00548573 L4,5 L6.58579,5 L8.14645,3.43934 C8.3925875,3.19319375 8.71546359,3.04143375 9.05885174,3.00733979 L9.20711,3 L14.7929,3 Z M12,7.5 C9.23858,7.5 7,9.73858 7,12.5 C7,15.2614 9.23858,17.5 12,17.5 C14.7614,17.5 17,15.2614 17,12.5 C17,9.73858 14.7614,7.5 12,7.5 Z M12,9.5 C13.6569,9.5 15,10.8431 15,12.5 C15,14.1569 13.6569,15.5 12,15.5 C10.3431,15.5 9,14.1569 9,12.5 C9,10.8431 10.3431,9.5 12,9.5 Z" id="形状" fill="#09244B"></path>
            </g>
        </g>
    </g>
</svg>

<svg xmlns="http://www.w3.org/2000/svg" width="24" height="24"><g fill="none" fill-rule="nonzero"><path d="M24 0v24H0V0h24ZM12.593 23.258l-.011.002-.071.035-.02.004-.014-.004-.071-.035c-.01-.004-.019-.001-.024.005l-.004.01-.017.428.005.02.01.013.104.074.015.004.012-.004.104-.074.012-.016.004-.017-.017-.427c-.002-.01-.009-.017-.017-.018Zm.265-.113-.013.002-.185.093-.01.01-.003.011.018.43.005.012.008.007.201.093c.012.004.023 0 .029-.008l.004-.014-.034-.614c-.003-.012-.01-.02-.02-.022Zm-.715.002a.023.023 0 0 0-.027.006l-.006.014-.034.614c0 .012.007.02.017.024l.015-.002.201-.093.01-.008.004-.011.017-.43-.003-.012-.01-.01-.184-.092Z"/><path fill="#09244B" d="M14.793 3a1.5 1.5 0 0 1 .95.34l.11.1L17.415 5H20a2 2 0 0 1 1.995 1.85L22 7v12a2 2 0 0 1-1.85 1.995L20 21H4a2 2 0 0 1-1.995-1.85L2 19V7a2 2 0 0 1 1.85-1.995L4 5h2.586l1.56-1.56a1.5 1.5 0 0 1 .913-.433L9.207 3h5.586ZM12 7.5a5 5 0 1 0 0 10 5 5 0 0 0 0-10Zm0 2a3 3 0 1 1 0 6 3 3 0 0 1 0-6Z"/></g></svg>
